src/assets/icon/Icon=photo.svg

<svg width="16" height="16" viewBox="0 0 16 16" fill="none" xmlns="http://www.w3.org/2000/svg">
<path d="M10.9091 1C11.0616 0.999597 11.2103 1.04862 11.3343 1.14013C11.4583 1.23165 11.5512 1.36104 11.6 1.51L12.16 3.25H13.8182C14.3968 3.25 14.9518 3.48706 15.361 3.90901C15.7701 4.33097 16 4.90326 16 5.5V13.75C16 14.3467 15.7701 14.919 15.361 15.341C14.9518 15.7629 14.3968 16 13.8182 16H2.18182C1.60316 16 1.04821 15.7629 0.63904 15.341C0.229869 14.919 0 14.3467 0 13.75V5.5C0 4.90326 0.229869 4.33097 0.63904 3.90901C1.04821 3.48706 1.60316 3.25 2.18182 3.25H3.84L4.4 1.51C4.44879 1.36104 4.54174 1.23165 4.66572 1.14013C4.78971 1.04862 4.93844 0.999597 5.09091 1H10.9091ZM10.3855 2.5H5.61455L5.09091 4.24C5.04031 4.39524 4.94182 4.52913 4.8105 4.62122C4.67917 4.71331 4.52223 4.75854 4.36364 4.75H2.18182C1.98893 4.75 1.80395 4.82902 1.66756 4.96967C1.53117 5.11032 1.45455 5.30109 1.45455 5.5V13.75C1.45455 13.9489 1.53117 14.1397 1.66756 14.2803C1.80395 14.421 1.98893 14.5 2.18182 14.5H13.8182C14.0111 14.5 14.1961 14.421 14.3324 14.2803C14.4688 14.1397 14.5455 13.9489 14.5455 13.75V5.5C14.5455 5.30109 14.4688 5.11032 14.3324 4.96967C14.1961 4.82902 14.0111 4.75 13.8182 4.75H11.6364C11.4839 4.75041 11.3352 4.70139 11.2112 4.60987C11.0872 4.51835 10.9942 4.38897 10.9455 4.24L10.3855 2.5ZM8 5.125C9.06087 5.125 10.0783 5.5596 10.8284 6.33319C11.5786 7.10677 12 8.15598 12 9.25C11.9981 10.3434 11.576 11.3915 10.8263 12.1646C10.0766 12.9378 9.06028 13.373 8 13.375C6.93913 13.375 5.92172 12.9404 5.17157 12.1668C4.42143 11.3932 4 10.344 4 9.25C4 8.15598 4.42143 7.10677 5.17157 6.33319C5.92172 5.5596 6.93913 5.125 8 5.125ZM8 6.625C7.3249 6.625 6.67746 6.90156 6.20009 7.39385C5.72273 7.88613 5.45455 8.55381 5.45455 9.25C5.45455 9.94619 5.72273 10.6139 6.20009 11.1062C6.67746 11.5984 7.3249 11.875 8 11.875C8.6751 11.875 9.32254 11.5984 9.79991 11.1062C10.2773 10.6139 10.5455 9.94619 10.5455 9.25C10.5455 8.55381 10.2773 7.88613 9.79991 7.39385C9.32254 6.90156 8.6751 6.625 8 6.625Z" fill="black"/>
</svg>

<svg xmlns="http://www.w3.org/2000/svg" width="16" height="16" fill="none" viewBox="0 0 16 16"><path fill="#000" d="M10.91 1c.152 0 .3.049.424.14a.753.753 0 0 1 .266.37l.56 1.74h1.658c.579 0 1.134.237 1.543.659.41.422.639.994.639 1.591v8.25c0 .597-.23 1.169-.639 1.591a2.15 2.15 0 0 1-1.543.659H2.182a2.149 2.149 0 0 1-1.543-.659A2.286 2.286 0 0 1 0 13.75V5.5c0-.597.23-1.169.639-1.591a2.15 2.15 0 0 1 1.543-.659H3.84l.56-1.74a.749.749 0 0 1 .266-.37A.712.712 0 0 1 5.09 1h5.818zm-.524 1.5H5.615L5.09 4.24a.748.748 0 0 1-.28.381.711.711 0 0 1-.447.129H2.182a.716.716 0 0 0-.514.22.762.762 0 0 0-.213.53v8.25c0 .199.076.39.213.53.136.141.32.22.514.22h11.636a.716.716 0 0 0 .514-.22.762.762 0 0 0 .213-.53V5.5a.762.762 0 0 0-.213-.53.716.716 0 0 0-.514-.22h-2.182a.712.712 0 0 1-.425-.14.748.748 0 0 1-.266-.37l-.56-1.74zM8 5.125a3.94 3.94 0 0 1 2.828 1.208A4.191 4.191 0 0 1 12 9.25a4.199 4.199 0 0 1-1.174 2.915A3.947 3.947 0 0 1 8 13.375a3.94 3.94 0 0 1-2.828-1.208A4.191 4.191 0 0 1 4 9.25a4.19 4.19 0 0 1 1.172-2.917A3.94 3.94 0 0 1 8 5.125zm0 1.5c-.675 0-1.323.277-1.8.769a2.667 2.667 0 0 0-.745 1.856c0 .696.268 1.364.745 1.856a2.507 2.507 0 0 0 1.8.769c.675 0 1.323-.277 1.8-.769.477-.492.745-1.16.745-1.856 0-.696-.268-1.364-.745-1.856A2.507 2.507 0 0 0 8 6.625z"/></svg>
